assets/spark/icons/IdeaOutline.svg

<svg viewBox="0 0 24 24" xmlns="http://www.w3.org/2000/svg">
    <path d="M10.325 21.9998C9.91667 21.9998 9.53333 21.8397 9.24167 21.5533C8.95 21.2668 8.78333 20.8793 8.76667 20.4665V18.5372C8.04167 18.0739 7.425 17.4589 6.95833 16.726C6.375 15.8161 6.04167 14.763 5.99167 13.6847C5.94167 12.6063 6.18333 11.528 6.68333 10.5676C7.18333 9.60717 7.93333 8.80683 8.84167 8.23396C9.75833 7.66109 10.8 7.34938 11.875 7.33253C12.95 7.31568 14.0083 7.57684 14.9417 8.10759C15.875 8.63834 16.6583 9.4134 17.2 10.3485C17.7417 11.2837 18.025 12.3536 18.0167 13.4319C18 14.5608 17.6833 15.656 17.1 16.5996C16.625 17.3662 15.9917 18.0065 15.2417 18.4951V20.4412C15.2333 20.8793 15.0667 21.2668 14.775 21.5533C14.4833 21.8397 14.0917 21.9998 13.6833 21.9998H10.325ZM10.7667 19.9779H13.2333V17.9054C13.2333 17.5179 13.45 17.1725 13.7917 17.004C14.45 16.667 15.0083 16.1615 15.4 15.5297C15.7917 14.8978 16.0083 14.1733 16.0167 13.4235C16.0167 12.699 15.8333 11.9913 15.4667 11.3679C15.1083 10.7445 14.5833 10.2222 13.9583 9.86833C13.3333 9.5145 12.6083 9.34601 11.9083 9.35443C11.1917 9.37128 10.4917 9.5819 9.88333 9.961C9.275 10.3401 8.775 10.8793 8.44167 11.5196C8.10833 12.1598 7.95 12.8759 7.98333 13.6004C8.01667 14.3249 8.24167 15.0242 8.63333 15.6308C9.025 16.2373 9.56667 16.726 10.2083 17.0461C10.55 17.2146 10.7667 17.5684 10.7667 17.9475V19.9779ZM21 10.5844H18.85C18.3 10.5844 17.85 10.1295 17.85 9.57347C17.85 9.01745 18.3 8.56252 18.85 8.56252H21C21.55 8.56252 22 9.01745 22 9.57347C22 10.1295 21.55 10.5844 21 10.5844ZM5.15 10.5844H3C2.45 10.5844 2 10.1295 2 9.57347C2 9.01745 2.45 8.56252 3 8.56252H5.15C5.7 8.56252 6.15 9.01745 6.15 9.57347C6.15 10.1295 5.7 10.5844 5.15 10.5844ZM7.78333 7.64424C7.525 7.64424 7.26667 7.54314 7.075 7.34095L5.55833 5.79083C5.16667 5.39487 5.175 4.7546 5.55833 4.35864C5.95 3.96269 6.58333 3.97111 6.975 4.35864L8.49167 5.90877C8.88333 6.30473 8.875 6.945 8.49167 7.34095C8.3 7.53472 8.04167 7.63581 7.79167 7.63581L7.78333 7.64424ZM16.2083 7.64424C15.95 7.64424 15.7 7.54314 15.5083 7.34938C15.1167 6.95342 15.1167 6.31315 15.5083 5.91719L17.025 4.36707C17.4167 3.97111 18.05 3.97111 18.4417 4.36707C18.8333 4.76302 18.8333 5.40329 18.4417 5.79925L16.925 7.34938C16.7333 7.55157 16.475 7.65266 16.2167 7.65266L16.2083 7.64424ZM11.9917 6.19521C11.4417 6.19521 10.9917 5.74028 10.9917 5.18425V3.01071C10.9917 2.45468 11.4417 1.99976 11.9917 1.99976C12.5417 1.99976 12.9917 2.45468 12.9917 3.01071V5.18425C12.9917 5.74028 12.5417 6.19521 11.9917 6.19521Z"/>
</svg>

<svg viewBox="0 0 24 24" xmlns="http://www.w3.org/2000/svg">
  <path d="m10.32,22c-.41,0-.79-.16-1.08-.45-.29-.29-.46-.67-.47-1.09v-1.93c-.73-.46-1.34-1.08-1.81-1.81-.58-.91-.92-1.96-.97-3.04-.05-1.08.19-2.16.69-3.12.5-.96,1.25-1.76,2.16-2.33.92-.57,1.96-.88,3.03-.9s2.13.24,3.07.78c.93.53,1.72,1.31,2.26,2.24.54.94.82,2.01.82,3.08-.02,1.13-.33,2.22-.92,3.17-.48.77-1.11,1.41-1.86,1.9v1.95c0,.44-.18.83-.47,1.11-.29.29-.68.45-1.09.45h-3.36Zm.44-2.02h2.47v-2.07c0-.39.22-.73.56-.9.66-.34,1.22-.84,1.61-1.47.39-.63.61-1.36.62-2.11,0-.72-.18-1.43-.55-2.06-.36-.62-.88-1.15-1.51-1.5-.62-.35-1.35-.52-2.05-.51-.72.02-1.42.23-2.02.61-.61.38-1.11.92-1.44,1.56-.33.64-.49,1.36-.46,2.08.03.72.26,1.42.65,2.03.39.61.93,1.1,1.57,1.42.34.17.56.52.56.9v2.03Zm10.23-9.39h-2.15c-.55,0-1-.45-1-1.01s.45-1.01,1-1.01h2.15c.55,0,1,.45,1,1.01s-.45,1.01-1,1.01Zm-15.85,0h-2.15c-.55,0-1-.45-1-1.01s.45-1.01,1-1.01h2.15c.55,0,1,.45,1,1.01s-.45,1.01-1,1.01Zm2.63-2.94c-.26,0-.52-.1-.71-.3l-1.52-1.55c-.39-.4-.38-1.04,0-1.43.39-.4,1.03-.39,1.42,0l1.52,1.55c.39.4.38,1.04,0,1.43-.19.19-.45.29-.7.29h0Zm8.42,0c-.26,0-.51-.1-.7-.29-.39-.4-.39-1.04,0-1.43l1.52-1.55c.39-.4,1.02-.4,1.42,0,.39.4.39,1.04,0,1.43l-1.52,1.55c-.19.2-.45.3-.71.3h0Zm-4.22-1.45c-.55,0-1-.45-1-1.01v-2.17c0-.56.45-1.01,1-1.01s1,.45,1,1.01v2.17c0,.56-.45,1.01-1,1.01Z"/>
</svg>
